X:1
T:The Soldier's Farewell (White Cockade 2)
M:4/4
L:1/4
K:F
 C| F G A B| c2 B A| G F E F| G3| A| B A B G| B A G F| E F G A| G3|\
 C| F G A B| c2 B A| d B A G| F- E D| C| F G A F| E D z D/2D/2| G A B G|\
 F E z| E/2E/2| A B c A| G F z d| c A B G| F3||
